<?xml version="1.0" encoding="UTF-8"?>
<map version="1.10" tiledversion="1.11.2" orientation="orthogonal" renderorder="right-down" width="20" height="12" tilewidth="29" tileheight="28" infinite="0" nextlayerid="4" nextobjectid="1">
 <editorsettings>
  <export target="level6..tmx" format="tmx"/>
 </editorsettings>
 <tileset firstgid="1" name="bricks_tiles" tilewidth="29" tileheight="28" tilecount="32" columns="8">
  <image source="../src/assets/bricks_tiles.png" width="232" height="112"/>
 </tileset>
 <layer id="1" name="Tile Layer 1" width="20" height="12">
  <data encoding="csv">
0,9,10,1,2,1,2,3,4,3,4,3,4,5,6,3,4,11,12,25,
15,16,1,2,7,8,0,0,0,20,0,11,12,3,4,0,0,0,0,0,
1,2,19,0,19,0,1,2,20,21,20,0,0,0,0,22,0,0,0,0,
0,0,0,19,0,19,1,2,0,20,0,0,21,21,21,0,0,0,17,18,
17,18,17,18,17,18,0,0,17,18,17,18,0,21,0,0,17,18,1,2,
0,19,0,19,0,19,1,2,19,1,2,19,0,21,21,0,1,2,9,10,
0,0,19,0,19,0,1,2,0,1,2,0,1,2,21,0,17,18,1,2,
0,0,0,19,0,0,3,4,0,1,2,0,1,2,21,0,20,21,17,18,
0,0,0,0,19,0,1,2,0,3,4,0,1,2,21,0,0,0,20,0,
0,0,0,0,0,0,9,10,0,9,10,0,0,3,4,0,0,0,0,21,
23,24,0,0,0,0,0,0,0,0,0,0,0,5,6,0,0,0,0,0,
0,0,0,0,0,0,15,16,0,0,0,0,0,3,4,0,0,0,0,0
</data>
 </layer>
 <layer id="3" name="Tile Layer 2" width="20" height="12">
  <data encoding="csv">
0,0,0,0,0,0,0,0,0,0,0,0,0,0,0,0,0,0,0,32,
0,0,0,0,0,0,0,0,0,0,0,0,0,0,0,0,0,0,0,0,
0,0,0,0,0,0,0,0,0,0,0,0,0,0,0,0,0,0,0,0,
0,0,0,0,0,0,0,0,0,0,0,0,0,0,0,0,0,0,0,0,
0,0,0,0,0,0,0,0,0,0,0,0,0,0,0,0,0,0,0,0,
0,0,0,0,0,0,0,0,0,0,0,0,0,0,0,0,0,0,0,0,
0,0,0,0,0,0,0,0,0,0,0,0,0,0,0,0,0,0,0,0,
0,0,0,0,0,0,0,0,0,0,0,0,0,0,0,0,0,0,0,0,
0,0,0,0,0,0,0,0,0,0,0,0,0,0,0,0,0,0,0,0,
0,0,0,0,0,0,0,0,0,0,0,0,0,0,0,0,0,0,0,0,
0,0,0,0,0,0,0,0,0,0,0,0,0,0,0,0,0,0,0,0,
0,0,0,0,0,0,0,0,0,0,0,0,0,0,0,0,0,0,0,0
</data>
 </layer>
 <objectgroup id="2" name="Object Layer 1"/>
</map>
